assets/img/icons/socials/facebook.svg

<svg width="24" height="24" viewBox="0 0 24 24" version="1.1" xmlns="http://www.w3.org/2000/svg" xmlns:xlink="http://www.w3.org/1999/xlink">
<title>facebook</title>
<desc>Created using Figma</desc>
<g id="Canvas" transform="translate(501 -1224)">
<g id="ic/24/social/facebook">
<g id="Shape">
<use xlink:href="#path0_fill" transform="translate(-498 1227)" fill="#FFFFFF"/>
</g>
<mask id="mask0_outline" mask-type="alpha">
<g id="Shape">
<use xlink:href="#path0_fill" transform="translate(-498 1227)" fill="#FFFFFF"/>
</g>
</mask>
</g>
</g>
<defs>
<path id="path0_fill" fill-rule="evenodd" d="M 16.5 0L 1.5 0C 0.659973 0 0 0.660034 0 1.5L 0 16.5C 0 17.34 0.659973 18 1.5 18L 8.40002 18L 12 18L 16.5 18C 17.34 18 18 17.34 18 16.5L 18 1.5C 18 0.660034 17.34 0 16.5 0ZM 9.05185 11.2609L 6.79999 11.2609L 6.79999 8.96521L 9.05185 8.96521L 9.05185 6.95654C 9.05185 5.32092 10.2904 3.94348 11.8667 3.80005L 14.4 3.80005L 14.4 6.0957L 12.1481 6.0957C 11.6696 6.0957 11.3037 6.46875 11.3037 6.95654L 11.3037 8.96521L 14.1185 8.96521L 14.1185 11.2609L 11.3037 11.2609L 11.3037 17.2001L 9.05185 17.2001L 9.05185 11.2609ZM 11.9286 17.2001L 16.3214 17.2001C 16.8193 17.2001 17.2 16.8193 17.2 16.3215L 17.2 1.67859C 17.2 1.18079 16.8193 0.800049 16.3214 0.800049L 1.67856 0.800049C 1.18069 0.800049 0.799988 1.18079 0.799988 1.67859L 0.799988 16.3215C 0.799988 16.8193 1.18069 17.2001 1.67856 17.2001L 8.41425 17.2001L 8.41425 11.9286L 6.07138 11.9286L 6.07138 8.41431L 8.41425 8.41431L 8.41425 6.95007C 8.41425 4.98792 9.93713 3.3186 11.8993 3.14294L 15.15 3.14294L 15.15 6.65723L 12.2214 6.65723C 12.0457 6.65723 11.9286 6.77429 11.9286 6.95007L 11.9286 8.41431L 14.8571 8.41431L 14.8571 11.9286L 11.9286 11.9286L 11.9286 17.2001Z"/>
</defs>
</svg>

<svg width="24" height="24" xmlns="http://www.w3.org/2000/svg" xmlns:xlink="http://www.w3.org/1999/xlink">
<path transform="translate(3 3)" fill="#FFF" fill-rule="evenodd" d="M16.5 0h-15C.66 0 0 .66 0 1.5v15c0 .84.66 1.5 1.5 1.5h15c.84 0 1.5-.66 1.5-1.5v-15c0-.84-.66-1.5-1.5-1.5zM9.0518 11.2609H6.8V8.9652h2.2519V6.9565c0-1.6356 1.2385-3.013 2.8148-3.1564H14.4v2.2956h-2.2519c-.4785 0-.8444.373-.8444.8608v2.0087h2.8148v2.2957h-2.8148v5.9392H9.0519v-5.9392zm2.8768 5.9392h4.3928c.4979 0 .8786-.3808.8786-.8786V1.6785c0-.4977-.3807-.8785-.8786-.8785H1.6786C1.1806.8.8 1.1808.8 1.6786v14.6429c0 .4978.3807.8786.8786.8786h6.7356v-5.2715H6.0714V8.4143h2.3428V6.9501c0-1.9622 1.523-3.6315 3.4851-3.8072H15.15v3.5143h-2.9286c-.1757 0-.2928.117-.2928.2929v1.4642h2.9285v3.5143h-2.9285v5.2715z"/>
</svg>
